X:1
T:Title
%%score { ( 1 4 ) | ( 2 3 ) }
L:1/8
M:6/8
K:D
V:1 treble nm="Grand Piano"
V:4 treble 
V:2 bass 
V:3 bass 
V:1
 z3 z2[Q:1/4=100] [DF] | [FA]2 [FA] [GB]2 [=F^G] | [FA]2 [FA] [DF]2 [DF] | [FA]2 [DF] [CE]2 [CA] | %4
[M:5/8] [DF]-[DF]- [DF]3 |[M:1/8] [DF] |[M:3/4] [FA]2 [FA] [GB]2 [=F^G] | [FA]2 [FA] F2 F | %8
 EF ^GG cB | A2- [EA-] [GA]3 |[M:1/8] A |[M:3/4] [Fd]3 F2 A | d3 E2 F | G[Gc] [GB] [FA]2 [EG] | %14
[M:5/8] [DF]-[DF]- [DF]3 |[M:1/8] [FA] |[M:3/4] [Fd]3 F2 A |[M:7/8] d3 E3 F | %18
[M:3/4] G[Gc] [GB][FA] G[K:bass][G,CE] |[M:5/8] [F,D]-[F,D]- [F,D]3 |] %20
V:2
 z3 z2 [D,A,] | [D,D]2 [D,D] [D,D]2 [D,D] | [D,D]2 [D,D] [D,A,]2 [D,A,] | %3
 [A,,A,]2 [A,,A,] [A,,A,]2 [A,,A,] |[M:5/8] [D,A,]-[D,A,]- [D,A,]3 |[M:1/8] [D,A,] | %6
[M:3/4] [D,D]2 [D,D] [D,D]2 [D,D] | [D,D]2 [D,D] [D,A,D]2 [D,A,D] | .C2 z B, z2 | %9
 z2[K:treble] C E3 |[M:1/8] [A,G] |[M:3/4][K:bass] [D,A,]3 [D,A,D]2 [F,D] | %12
 [G,B,D]3 [G,B,D]2 [G,B,D] | [E,B,E][E,A,] [C,A,] [A,,A,]2 [A,,A,] | %14
[M:5/8] [D,A,]-[D,A,]- [D,A,]3 |[M:1/8] [D,A,] |[M:3/4] [D,A,]3 [D,A,D]2 [F,D] | %17
[M:7/8] [G,B,D]3 [G,B,D]3 [F,B,D] |[M:3/4] [E,B,E][E,A,] .[C,A,]2 EA,, |[M:5/8] D,-D,- D,3 |] %20
V:3
 x6 | x6 | x6 | x6 |[M:5/8] x5 |[M:1/8] x |[M:3/4] x6 | x6 | %8
 [E,A,]-[E,A,D] [E,B,E][E,E]- [E,A,E][E,^G,D] | A,,6[K:treble] |[M:1/8] x |[M:3/4][K:bass] x6 | %12
 x6 | x6 |[M:5/8] x5 |[M:1/8] x |[M:3/4] x6 |[M:7/8] x7 |[M:3/4] z2 z .[A,,A,]3 |[M:5/8] x5 |] %20
V:4
 x6 | x6 | x6 | x6 |[M:5/8] x5 |[M:1/8] x |[M:3/4] x6 | x6 | x6 | [A,C]2 z2 z2 |[M:1/8] x | %11
[M:3/4] x6 | x6 | x6 |[M:5/8] x5 |[M:1/8] x |[M:3/4] x6 |[M:7/8] x7 |[M:3/4] x5[K:bass] x | %19
[M:5/8] x5 |] %20

